static/assets/img/icons/theme/weather/snow-3.svg

<svg height="24" viewBox="0 0 24 24" width="24" xmlns="http://www.w3.org/2000/svg"><g fill="none" fill-rule="evenodd"><path d="m0 0h24v24h-24z" opacity="0"/><g fill="#000"><path d="m11.9058667 22.1192596c.5334661.1429418.8500486.6912788.7071067 1.2247449-.1429418.5334661-.6912787.8500486-1.2247448.7071068-.5334661-.1429419-.8500486-.6912788-.7071068-1.2247449s.6912788-.8500486 1.2247449-.7071068zm4 0c.5334661.1429418.8500486.6912788.7071067 1.2247449-.1429418.5334661-.6912787.8500486-1.2247448.7071068-.5334661-.1429419-.8500486-.6912788-.7071068-1.2247449s.6912788-.8500486 1.2247449-.7071068zm-8.00000004 0c.5334661.1429418.85004859.6912788.70710678 1.2247449s-.69127877.8500486-1.22474487.7071068c-.53346611-.1429419-.8500486-.6912788-.70710678-1.2247449.14294181-.5334661.69127876-.8500486 1.22474487-.7071068zm5.09413334-7.1192596c-2.209139 0-4-1.790861-4-4s1.790861-4 4-4 4 1.790861 4 4-1.790861 4-4 4zm7.5-5.5h1.5c.8284271 0 1.5.6715729 1.5 1.5s-.6715729 1.5-1.5 1.5h-1.5c-.8284271 0-1.5-.6715729-1.5-1.5s.6715729-1.5 1.5-1.5zm-3.4393398-4.62867966 1.0606601-1.06066017c.5857865-.58578644 1.5355339-.58578644 2.1213204 0 .5857864.58578644.5857864 1.53553391 0 2.12132035l-1.0606602 1.06066017c-.5857864.58578643-1.5355339.58578643-2.1213203 0-.5857865-.58578644-.5857865-1.53553391 0-2.12132035zm-4.0606602-4.37132034c.8284271 0 1.5.67157288 1.5 1.5v1.5c0 .82842712-.6715729 1.5-1.5 1.5s-1.5-.67157288-1.5-1.5v-1.5c0-.82842712.6715729-1.5 1.5-1.5zm-7.18933983 3.31066017c.58578644-.58578644 1.53553391-.58578644 2.12132035 0l1.06066017 1.06066017c.58578643.58578644.58578643 1.53553391 0 2.12132035-.58578644.58578643-1.53553391.58578643-2.12132035 0l-1.06066017-1.06066017c-.58578644-.58578644-.58578644-1.53553391 0-2.12132035z" opacity=".3"/><path d="m4.74714567 19.0425758c-1.65304205-1.0685402-2.74714567-2.9277872-2.74714567-5.0425758 0-3.3137085 2.6862915-6 6-6 2.7957591 0 5.1449096 1.91215918 5.8109738 4.5h2.4390262c2.0710678 0 3.75 1.6789322 3.75 3.75s-1.6789322 3.75-3.75 3.75h-9c-.96182105 0-1.83906822-.3621038-2.50285433-.9574242z"/></g></g></svg>

<svg width="24px" height="24px" viewBox="0 0 24 24" version="1.1" xmlns="http://www.w3.org/2000/svg" xmlns:xlink="http://www.w3.org/1999/xlink">
    <title>Icon For Snow#3</title>
    <g stroke="none" stroke-width="1" fill="none" fill-rule="evenodd">
        <polygon points="0 0 24 0 24 24 0 24" opacity="0"></polygon>
        <path d="M11.9058667,22.1192596 C12.4393328,22.2622014 12.7559153,22.8105384 12.6129734,23.3440045 C12.4700316,23.8774706 11.9216947,24.1940531 11.3882286,24.0511113 C10.8547625,23.9081694 10.53818,23.3598325 10.6811218,22.8263664 C10.8240636,22.2929003 11.3724006,21.9763178 11.9058667,22.1192596 Z M15.9058667,22.1192596 C16.4393328,22.2622014 16.7559153,22.8105384 16.6129734,23.3440045 C16.4700316,23.8774706 15.9216947,24.1940531 15.3882286,24.0511113 C14.8547625,23.9081694 14.53818,23.3598325 14.6811218,22.8263664 C14.8240636,22.2929003 15.3724006,21.9763178 15.9058667,22.1192596 Z M7.90586666,22.1192596 C8.43933276,22.2622014 8.75591525,22.8105384 8.61297344,23.3440045 C8.47003163,23.8774706 7.92169467,24.1940531 7.38822857,24.0511113 C6.85476246,23.9081694 6.53817997,23.3598325 6.68112179,22.8263664 C6.8240636,22.2929003 7.37240055,21.9763178 7.90586666,22.1192596 Z M13,15 C10.790861,15 9,13.209139 9,11 C9,8.790861 10.790861,7 13,7 C15.209139,7 17,8.790861 17,11 C17,13.209139 15.209139,15 13,15 Z M20.5,9.5 L22,9.5 C22.8284271,9.5 23.5,10.1715729 23.5,11 C23.5,11.8284271 22.8284271,12.5 22,12.5 L20.5,12.5 C19.6715729,12.5 19,11.8284271 19,11 C19,10.1715729 19.6715729,9.5 20.5,9.5 Z M17.0606602,4.87132034 L18.1213203,3.81066017 C18.7071068,3.22487373 19.6568542,3.22487373 20.2426407,3.81066017 C20.8284271,4.39644661 20.8284271,5.34619408 20.2426407,5.93198052 L19.1819805,6.99264069 C18.5961941,7.57842712 17.6464466,7.57842712 17.0606602,6.99264069 C16.4748737,6.40685425 16.4748737,5.45710678 17.0606602,4.87132034 Z M13,0.5 C13.8284271,0.5 14.5,1.17157288 14.5,2 L14.5,3.5 C14.5,4.32842712 13.8284271,5 13,5 C12.1715729,5 11.5,4.32842712 11.5,3.5 L11.5,2 C11.5,1.17157288 12.1715729,0.5 13,0.5 Z M5.81066017,3.81066017 C6.39644661,3.22487373 7.34619408,3.22487373 7.93198052,3.81066017 L8.99264069,4.87132034 C9.57842712,5.45710678 9.57842712,6.40685425 8.99264069,6.99264069 C8.40685425,7.57842712 7.45710678,7.57842712 6.87132034,6.99264069 L5.81066017,5.93198052 C5.22487373,5.34619408 5.22487373,4.39644661 5.81066017,3.81066017 Z" fill="#000000" opacity="0.3"></path>
        <path d="M4.74714567,19.0425758 C3.09410362,17.9740356 2,16.1147886 2,14 C2,10.6862915 4.6862915,8 8,8 C10.7957591,8 13.1449096,9.91215918 13.8109738,12.5 L16.25,12.5 C18.3210678,12.5 20,14.1789322 20,16.25 C20,18.3210678 18.3210678,20 16.25,20 L7.25,20 C6.28817895,20 5.41093178,19.6378962 4.74714567,19.0425758 Z" fill="#000000"></path>
    </g>
</svg>
